src/main/resources/icons/AopCommonIcons/icons/after_throwing_advice@2x.svg

<svg xmlns="http://www.w3.org/2000/svg" width="16" height="16" viewBox="0 0 16 16">
  <g fill="none" fill-rule="evenodd">
    <path fill="#F98B9E" fill-opacity=".6" d="M12.934128,7.1863378 L8.05614529,12.9996913 C8.03745463,12.9998969 8.01873935,13 8,13 C5.23857143,13 3,10.7614286 3,8 C3,5.23857143 5.23857143,3 8,3 C10.4843668,3 12.5455324,4.81190221 12.934128,7.1863378 Z"/>
    <path fill="#231F20" fill-opacity=".7" d="M11.9997201,8.29992182 L11.0046997,9.48574095 L11.0046997,8 C11.0041373,7.54 10.7,7 9.75,7 C8.8,7 8.5,7.64 8.5,8 L8.5,11.0003 L7.5,11.0003 L7.5,8 C7.499,7.537 7.15,7 6.2,7 C5.25,7 5,7.64 5,8 C5,8 5,9.0001 5,11.0003 L4,11.0003 L4,6.0003 L5,6.0003 L5,6.399231 C5.46527507,6.133277 5.93194173,6.0003 6.4,6.0003 C7.13333333,6.0003 7.66666667,6.20159567 8,6.60418701 C8.46476237,6.20159567 9.0919717,6.0003 9.881628,6.0003 C11.4984741,6.0003 11.999,7.15 12,8 L11.9997201,8.29992182 Z"/>
    <path fill="#9AA7B0" fill-opacity=".8" d="M10,14.7101213 C9.36629059,14.8987225 8.69497261,15 8,15 C4.13400675,15 1,11.8659932 1,8 C1,7.66047866 1.02417196,7.32660298 1.07088886,7 L2.08295844,7 C2.0283988,7.32520847 2,7.65928779 2,8 C2,11.3137085 4.6862915,14 8,14 C8.70127085,14 9.37444215,13.8796916 10,13.6585886 L10,14.7101213 Z M14.9291111,7 L13.9170416,7 L14.9291111,7 Z"/>
    <polygon fill="#231F20" fill-opacity=".7" points="12 16 13.6 12.8 9.6 12.8 13.6 8 12.8 11.2 16 11.2"/>
  </g>
</svg>

<svg xmlns="http://www.w3.org/2000/svg" width="16" height="16" viewBox="0 0 16 16"><rect id="frame" width="16" height="16" fill="none"/><g fill="none" fill-rule="evenodd"><path fill="#F98B9E" fill-opacity=".6" d="M12.934 7.186L8.056 13H8a5 5 0 1 1 4.934-5.814z"/><path fill="#231F20" fill-opacity=".7" d="M12 8.3l-.995 1.186V8c0-.46-.305-1-1.255-1S8.5 7.64 8.5 8v3h-1V8c-.001-.463-.35-1-1.3-1C5.25 7 5 7.64 5 8v3H4V6h1v.4c.465-.267.932-.4 1.4-.4.733 0 1.267.202 1.6.604C8.465 6.202 9.092 6 9.882 6 11.498 6 11.999 7.15 12 8v.3z"/><path fill="#9AA7B0" fill-opacity=".8" d="M10 14.71A7 7 0 0 1 1.07 7h1.013A6 6 0 0 0 10 13.659v1.051zM14.93 7h-1.013 1.012z"/><path fill="#231F20" fill-opacity=".7" d="M12 16l1.6-3.2h-4l4-4.8-.8 3.2H16z"/></g></svg>
